contributed-vectors/lazada_alt_two.svg

<svg xmlns="http://www.w3.org/2000/svg" xml:space="preserve" style="fill-rule:evenodd;clip-rule:evenodd;stroke-linejoin:round;stroke-miterlimit:2" viewBox="0 0 192 192"><path d="M164.5 21.5c0-5.519-4.481-10-10-10h-133c-5.519 0-10 4.481-10 10v133c0 5.519 4.481 10 10 10h133c5.519 0 10-4.481 10-10v-133Z" style="fill:#9abeff" transform="translate(8 8)"/><path d="M100.759 150.241a9.637 9.637 0 0 1-9.518 0l-48.995-27.834a9.838 9.838 0 0 1-4.978-8.554V70.088a9.837 9.837 0 0 1 5.082-8.612l15.603-8.617a9.84 9.84 0 0 1 9.683.097l15.161 8.773a26.362 26.362 0 0 0 26.406 0l15.161-8.773a9.84 9.84 0 0 1 9.683-.097l15.603 8.617a9.837 9.837 0 0 1 5.082 8.612v43.765a9.838 9.838 0 0 1-4.978 8.554l-48.995 27.834Z" style="fill:url(#a)" transform="matrix(.78884 0 0 .78884 20.27 15.887)"/><defs><linearGradient id="a" x1="0" x2="1" y1="0" y2="0" gradientTransform="translate(37.268 96) scale(117.465)" gradientUnits="userSpaceOnUse"><stop offset="0" style="stop-color:#f9de81;stop-opacity:1"/><stop offset=".25" style="stop-color:#f8c18c;stop-opacity:1"/><stop offset=".5" style="stop-color:#d4a9d3;stop-opacity:1"/><stop offset=".75" style="stop-color:#bd9aff;stop-opacity:1"/><stop offset="1" style="stop-color:#8c72bd;stop-opacity:1"/></linearGradient></defs></svg>

<?xml version="1.0" encoding="UTF-8" standalone="no"?>
<!DOCTYPE svg PUBLIC "-//W3C//DTD SVG 1.1//EN" "http://www.w3.org/Graphics/SVG/1.1/DTD/svg11.dtd">
<svg width="100%" height="100%" viewBox="0 0 192 192" version="1.1" xmlns="http://www.w3.org/2000/svg" xmlns:xlink="http://www.w3.org/1999/xlink" xml:space="preserve" xmlns:serif="http://www.serif.com/" style="fill-rule:evenodd;clip-rule:evenodd;stroke-linejoin:round;stroke-miterlimit:2;">
    <g id="Layer1">
        <g transform="matrix(1,0,0,1,8,8)">
            <path d="M164.5,21.5C164.5,15.981 160.019,11.5 154.5,11.5L21.5,11.5C15.981,11.5 11.5,15.981 11.5,21.5L11.5,154.5C11.5,160.019 15.981,164.5 21.5,164.5L154.5,164.5C160.019,164.5 164.5,160.019 164.5,154.5L164.5,21.5Z" style="fill:rgb(154,190,255);"/>
        </g>
        <g transform="matrix(0.788844,0,0,0.788844,20.2709,15.887)">
            <path d="M100.759,150.241C97.808,151.917 94.192,151.917 91.241,150.241C80.293,144.021 53.404,128.746 42.246,122.407C39.169,120.659 37.268,117.392 37.268,113.853L37.268,70.088C37.268,66.506 39.214,63.208 42.35,61.476C46.885,58.971 53.483,55.328 57.953,52.859C60.974,51.191 64.648,51.228 67.636,52.956C71.611,55.257 77.45,58.635 82.797,61.729C90.965,66.455 101.035,66.455 109.203,61.729C114.55,58.635 120.389,55.257 124.364,52.956C127.352,51.228 131.026,51.191 134.047,52.859C138.517,55.328 145.115,58.971 149.65,61.476C152.786,63.208 154.732,66.506 154.732,70.088C154.732,80.736 154.732,103.265 154.732,113.853C154.732,117.392 152.831,120.659 149.754,122.407C138.596,128.746 111.707,144.021 100.759,150.241Z" style="fill:url(#_Linear1);"/>
        </g>
    </g>
    <defs>
        <linearGradient id="_Linear1" x1="0" y1="0" x2="1" y2="0" gradientUnits="userSpaceOnUse" gradientTransform="matrix(117.465,0,0,117.465,37.2676,96)"><stop offset="0" style="stop-color:rgb(249,222,129);stop-opacity:1"/><stop offset="0.25" style="stop-color:rgb(248,193,140);stop-opacity:1"/><stop offset="0.5" style="stop-color:rgb(212,169,211);stop-opacity:1"/><stop offset="0.75" style="stop-color:rgb(189,154,255);stop-opacity:1"/><stop offset="1" style="stop-color:rgb(140,114,189);stop-opacity:1"/></linearGradient>
    </defs>
</svg>
